!!!!SEGMENT: pl-wtm--r-1543--004_stefani-jozef--msza-in-f-credo.krn
!!!cenid: 18xx:1788
!!!COM: Stefani, Józef
!!!COM-rismID: pe30024097
!!!CDT: 1800/04/16-1876/03/19
!!!CNT: Polish
!!!OPR: Msza in F
!!!OTL: Credo
!!!OMV: 004
!!!PDT:
!!!AGN: Sacred; Mass
!!!SMS-siglum: PL-Wtm
!!!SMS-shelfmark: R 1543
!!!SMS-shelfwork: 001-004 M
!!!SMS-variant:
!!!SMS-altvar:
!!!NIFC-rismSourceID: 1001120491
!!!NIFC-islandoraID: pl-wtm:26483
!!!URL-pdf-islandora: https://repozytorium.nifc.pl/islandora/object/pl-wtm%3A26483/datastream/PDF/view
!!!URL-scan: https://polish.musicsources.pl/pl/lokalizacje/galeria/rekopisy/6344 @EN{Scan on Polish Music Sources Website} @PL{Skany w portalu Dziedzictwo Muzyki Polskiej w otwartym dostępie}
!!!ONB-nifc: UWAGA: części Mszy: 1. Kyrie, 2. Gloria, 3. Graduale, 4. Credo, 5. Offertorium, 6. Sanctus, 7. Agnus Dei, 8. Dona nobis
!!!AIN: 1 alto 4 clars 2 cor 1 empty 1 fagot 1 oboe 1 organ 1 serp 1 soprn 1 tenor 1 timpa 1 tromp 1 tromt
!!!key:
**kern	**kern	**kern	**text	**dynam	**kern	**kern	**kern	**text	**dynam	**kern	**kern	**dynam	**kern	**dynam	**kern	**dynam	**kern	**kern	**dynam	**kern	**dynam	**kern	**dynam	**kern	**dynam	**kern	**dynam	**kern	**dynam	**kern	**dynam
*part17	*part17	*part16	*part16	*part16	*part15	*part14	*part13	*part13	*part13	*part12	*part11	*part11	*part10	*part10	*part9	*part9	*part8	*part7	*part7	*part6	*part6	*part5	*part5	*part4	*part4	*part3	*part3	*part2	*part2	*part1	*part1
*staff18	*staff17	*staff16	*staff16	*	*staff15	*staff14	*staff13	*staff13	*	*staff12	*staff11	*	*staff10	*	*staff9	*	*staff8	*staff7	*	*staff6	*	*staff5	*	*staff4	*	*staff3	*	*staff2	*	*staff1	*
*Iorgan	*Iempty	*Iempty	*	*	*Itenor	*Ialto	*Isoprn	*	*	*Itimpa	*Ifagot	*	*Itromt	*	*Iserp	*	*Itromp	*Icor	*	*Icor	*	*Iclars	*	*Iclars	*	*Iclars	*	*Iclars	*	*Ioboe	*
*I"[Organo]	*	*I"[Baſso]	*	*	*I"[Tenore]	*I"[Alto]	*I"[Soprano]	*	*	*I"[Timpani]	*I"[Fagotti]	*	*I"[Trombone II]	*	*I"[Tromboni et Serpent.]	*	*I"[Trombe in C.]	*I"Corni in F.	*	*I"Corni in D.	*	*I"Clarinetti	*	*I"Clarinetti	*	*I"Clarinetti	*	*I"P. Clarinet	*	*I"Oboe	*
*I'[org]	*	*I'[B]	*	*	*I'[T]	*I'[A]	*I'[S]	*	*	*I'[timp]	*I'[fag]	*	*I'[trb]	*	*I'[trb]	*	*I'[tr in C]	*I'cor in F	*	*I'cor in D	*	*I'cl 3	*	*I'cl 2	*	*I'cl 1	*	*I'cl	*	*I'ob	*
*clefF4	*clefG2	*clefF4	*	*	*clefC4	*clefG2	*clefG2	*	*	*clefF4	*clefF4	*	*clefF4	*	*clefC4	*	*clefG2	*clefG2	*	*clefG2	*	*clefG2	*	*clefG2	*	*clefG2	*	*clefG2	*	*clefG2	*
*	*	*	*	*	*	*	*	*	*	*	*	*	*	*	*	*	*	*ITrd4c7	*	*ITrd6c10	*	*	*	*	*	*	*	*	*	*	*
*k[b-]	*k[b-]	*k[b-]	*	*	*k[b-]	*k[b-]	*k[b-]	*	*	*k[]	*k[b-]	*	*k[b-]	*	*k[b-]	*	*k[]	*k[b-]	*	*k[f#c#]	*	*k[b-]	*	*k[b-]	*	*k[b-]	*	*k[b-]	*	*k[b-]	*
*d:	*d:	*d:	*	*	*d:	*d:	*d:	*	*	*d:	*d:	*	*d:	*	*d:	*	*d:	*d:	*	*d:	*	*d:	*	*d:	*	*d:	*	*d:	*	*d:	*
*	*	*	*	*	*	*	*	*	*	*	*	*	*	*	*	*	*	*	*	*	*	*	*	*	*	*	*	*	*	*	*
*M4/4	*M4/4	*M4/4	*	*	*M4/4	*M4/4	*M4/4	*	*	*M4/4	*M4/4	*	*M4/4	*	*M4/4	*	*M4/4	*M4/4	*	*M4/4	*	*M4/4	*	*M4/4	*	*M4/4	*	*M4/4	*	*M4/4	*
*met(c)	*met(c)	*met(c)	*	*	*met(c)	*met(c)	*met(c)	*	*	*met(c)	*met(c)	*	*met(c)	*	*met(c)	*	*met(c)	*met(c)	*	*met(c)	*	*met(c)	*	*met(c)	*	*met(c)	*	*met(c)	*	*met(c)	*
*>[A,A1,A,A1,A,A2]	*>[A,A1,A,A1,A,A2]	*>[A,A1,A,A1,A,A2]	*	*	*>[A,A1,A,A1,A,A2]	*>[A,A1,A,A1,A,A2]	*>[A,A1,A,A1,A,A2]	*	*	*>[A,A1,A,A1,A,A2]	*>[A,A1,A,A1,A,A2]	*	*>[A,A1,A,A1,A,A2]	*	*>[A,A1,A,A1,A,A2]	*	*>[A,A1,A,A1,A,A2]	*>[A,A1,A,A1,A,A2]	*	*>[A,A1,A,A1,A,A2]	*	*>[A,A1,A,A1,A,A2]	*	*>[A,A1,A,A1,A,A2]	*	*>[A,A1,A,A1,A,A2]	*	*>[A,A1,A,A1,A,A2]	*	*>[A,A1,A,A1,A,A2]	*
=1	=1	=1	=1	=1	=1	=1	=1	=1	=1	=1	=1	=1	=1	=1	=1	=1	=1	=1	=1	=1	=1	=1	=1	=1	=1	=1	=1	=1	=1	=1	=1
*>A	*>A	*>A	*	*	*>A	*>A	*>A	*	*	*>A	*>A	*	*>A	*	*>A	*	*>A	*>A	*	*>A	*	*>A	*	*>A	*	*>A	*	*>A	*	*>A	*
*^	*^	*	*	*	*	*	*	*	*	*	*	*	*	*	*	*	*	*	*	*	*	*	*	*	*	*	*	*	*	*	*
*2\right	*2\right	*2\right	*2\right	*	*	*	*	*	*	*	*	*	*	*	*	*	*	*	*	*	*	*	*	*	*	*	*	*	*	*	*	*	*
!	!	!	!	!	!	!	!	!	!	!	!LO:DY:a:rj	!	!	!	!	!	!	!	!	!	!	!	!	!	!	!	!	!	!	!	!	!	!
!LO:TX:b:t=P:all\right:problem	!LO:TX:a:t=P:all\right:problem	!LO:TX:b:t=P:all\right:problem	!LO:TX:a:t=P:all\right:problem	!	!	!	!	!	!	!	!	!	!LO:TX:a:t=P:all\right:problem	!	!	!	!	!	!	!	!	!LO:TX:a:t=P:problem	!	!	!	!	!	!	!	!	!	!LO:TX:a:i:t=Adagio	!LO:DY:b:rj
4F/	4D\	4d/	4d\	4D/	Wie-	p	4F/	4d/	4d/	Wie-	p	1ryy	4d 4F\	.	4D/	.	1r	.	1r	4A/	.	4d\	.	1r	.	1r	.	1r	.	1r	.	4d/	p
4A/	4C#X\	4e/	4e\	4C#X/	-rzę	.	4A/	4e/	4e/	-rzę	.	.	4e 4A\	.	4C#X/	.	.	.	.	2.A/	.	4e 4A\	.	.	.	.	.	.	.	.	.	4e/	.
4A/	4D\	4f/	4d\	4D/	w Bo-	.	4A/	4d/	4f/	w Bo-	.	.	4f 4d\	.	4D/	.	.	.	.	.	.	4fX 4d\	.	.	.	.	.	.	.	.	.	4f 4d/	.
4A/	4AA\	4e/	4c#X\	8AA/	-ga	.	8A/	8c#X/	8e/	-ga	.	.	4e 4c#X\	.	4AA/	.	.	.	.	.	.	4e 4A\	.	.	.	.	.	.	.	.	.	4e 4c#X/	.
.	.	.	.	8AA/	ie-	.	8A/	8c#/	8e/	ie-	.	.	.	.	.	.	.	.	.	.	.	.	.	.	.	.	.	.	.	.	.	.	.
=2	=2	=2	=2	=2	=2	=2	=2	=2	=2	=2	=2	=2	=2	=2	=2	=2	=2	=2	=2	=2	=2	=2	=2	=2	=2	=2	=2	=2	=2	=2	=2	=2	=2
*	*	*	*	*	*	*	*	*	*	*	*	*	*	*	*	*	*	*	*	*	*	*^	*	*	*	*	*	*	*	*	*	*	*
!	!	!	!	!	!	!	!LO:TX:a:t=P:all\right:problem	!	!	!	!	!	!	!	!	!	!	!	!	!	!	!	!	!	!	!	!	!	!	!	!	!	!	!
4A/	4D\	4f/	4d\	4D/	-dne-	.	4A\	4d/	4f/	-dne-	.	1ryy	4f 4d\	.	4D/	.	1r	.	1r	4f 4A/	.	4fX\	4d\	.	1r	.	1r	.	1r	.	1r	.	4f 4d/	.
*	*	*	*	*	*	*	*	*	*	*	*	*	*	*	*	*	*	*	*	*	*	*	*2\right	*	*	*	*	*	*	*	*	*	*	*
4ryy	4Cn\	4g 4e 4cn/	4ryy	4Cn/	-go	.	4c\	4e/	4g/	-go	.	.	4e 4cn\	.	4Cn/	.	.	.	.	4g 4c/	.	4e/	2.cX\	.	.	.	.	.	.	.	.	.	4g 4e/	.
!	!	!	!	!	!	!	!	!	!	!	!	!	!	!	!LO:TX:a:t=P:all\right:problem	!	!	!	!	!LO:TX:a:t=P:all\right:problem	!	!	!	!	!	!	!	!	!	!	!	!	!	!
2ryy	4F\	4a 4f 4c/	2ryy	4F\	stwór-	.	4c\	4f/	4a/	stwór-	.	.	4f 4F\	.	4F\	.	.	.	.	4a 4f\	.	4f/	.	.	.	.	.	.	.	.	.	.	4a 4f/	.
.	4C\	4g 4e 4c/	.	4C/	-cę	.	4c\	4e/	4g/	-cę	.	.	4c 4C\	.	4C/	.	.	.	.	4g 4c/	.	4e/	.	.	.	.	.	.	.	.	.	.	4g 4e/	.
=3	=3	=3	=3	=3	=3	=3	=3	=3	=3	=3	=3	=3	=3	=3	=3	=3	=3	=3	=3	=3	=3	=3	=3	=3	=3	=3	=3	=3	=3	=3	=3	=3	=3	=3
*	*	*	*	*	*	*	*	*	*	*	*	*	*	*	*	*	*	*	*	*^	*	*	*	*	*	*	*	*	*	*	*	*	*^	*
*	*	*	*	*	*	*	*2\right	*	*	*	*	*	*2\right	*	*	*	*	*	*	*	*	*	*	*	*	*	*	*	*	*	*	*	*	*2\right	*2\right	*
!	!	!	!	!	!	!	!	!	!	!	!	!	!	!	!	!	!	!	!	!	!	!LO:HP:a	!	!	!	!	!	!	!	!	!	!	!	!	!LO:TX:a:t=P:all\right:problem	!
2.A/	2C#X\	2a/	2e/	(<2C#X/	Nie-	.	2A\	(<2e/	(<2a/	Nie-	.	1ryy	2c#X 2C#X\	.	2C#X/	.	1r	.	1r	2a/	2re	>	(>2a/	2e\	.	1r	.	1r	.	1r	.	1r	.	2a/	2e\	.
.	4D\	8g/L	2d\	4D/)	.	.	4A\	4d/)	8g/L	.	.	.	4d 4D\	.	4D/	.	.	.	.	(>8g/L	4rc	.	8g/L	2d\	.	.	.	.	.	.	.	.	.	8g/L	2d\	.
.	.	8f/	.	.	.	.	.	.	8f/J)	.	.	.	.	.	.	.	.	.	.	8f/	.	.	8fX/	.	.	.	.	.	.	.	.	.	.	8f/	.	.
4B-\	4BB-\	8e/	.	4BB-/	-ba	.	4d\	4d/	(<8e/L	-ba	.	.	4B- 4BB-\	.	4BB-/	.	.	.	.	8e/	4B-\	]]	8e/	.	.	.	.	.	.	.	.	.	.	8e/	.	.
.	.	8d/J	.	.	.	.	.	.	8d/J)	.	.	.	.	.	.	.	.	.	.	8d/J)	.	.	8d/J)	.	.	.	.	.	.	.	.	.	.	8d/J	.	.
*v	*v	*	*	*	*	*	*	*	*	*	*	*	*	*	*	*	*	*	*	*	*	*	*	*	*	*	*	*	*	*	*	*	*	*v	*v	*
*	*v	*v	*	*	*	*	*	*	*	*	*	*	*	*	*	*	*	*	*	*	*	*	*	*	*	*	*	*	*	*	*	*	*	*
=4	=4	=4	=4	=4	=4	=4	=4	=4	=4	=4	=4	=4	=4	=4	=4	=4	=4	=4	=4	=4	=4	=4	=4	=4	=4	=4	=4	=4	=4	=4	=4	=4	=4
*	*	*	*	*	*	*	*	*	*	*	*	*	*	*	*	*	*	*	*2\right	*	*	*	*	*	*	*	*	*	*	*	*	*	*
!	!	!	!	!	!	!	!	!	!	!	!	!	!LO:N:vis=2.	!	!	!	!	!	!	!	!	!	!	!	!	!	!	!	!	!	!	!	!
2A 2AA\	2f 2d/	2AA/	zie-	.	2d\	2d/	2f/	zie-	.	1ryy	2.A 2.AA/	.	2AA/	.	2r	.	2r	(>2f/	2.A\	.	2d/	2.A\	.	2r	.	2r	.	2r	.	2r	.	2f 2d/	.
4A 4AA\	4e 4c#X/	4AA/	-mi	.	4c#X\	4e/	4e/	-mi	.	.	.	.	4r	.	4r	.	4r	4e/)	.	.	4c#/	.	.	4r	.	4r	.	4r	.	4r	.	4e 4c#X/	.
!	!	!	!	!	!	!	!	!	!	!	!	!	!	!	!	!	!	!	!	!	!	!	!	!	!	!	!	!	!	!	!LO:DY:a:rj	!	!LO:DY:a:rj
!	!	!	!	!	!	!	!	!	!	!	!	!	!	!	!LO:TX:a:t=P:all\right:problem	!	!	!	!	!	!	!	!LO:DY:b:rj	!	!	!	!LO:DY:b:rj	!	!	!LO:TX:a:t=P:all\right:problem	!	!	!
!	!	!	!	!	!	!	!	!	!	!	!	!	!	!LO:DY:b:rj	!	!LO:DY:b:rj	!	!	!	!	!	!	!	!	!	!	!	!	!	!	!	!	!
4A 4AA\	4a/	8.AA/	wszy-	.	8.A\	8.a/	8.a/	Wszy-	.	.	8.AL 8.AA/	.	8.AA/L	f	8.A\L	f	8.a/L	4r	4ryy	.	8.AL 8.AA/	4ryy	f	8.a/L	.	8.a/L	f	8.a/L	.	8.ee\L	f	8.a/L	f
.	.	16AA/	-stkich	.	16A\	16a/	16a/	-stkich	.	.	16AJk 16AA/	.	16AA/Jk	.	16A\Jk	.	16a/Jk	.	.	.	16AJk 16AA/	.	.	16a/Jk	.	16a/Jk	.	16a/Jk	.	16ee\Jk	.	16a/Jk	.
*	*	*	*	*	*	*	*	*	*	*	*	*	*	*	*	*	*	*	*	*	*v	*v	*	*	*	*	*	*	*	*	*	*	*
!!LO:PB:g=original
=5	=5	=5	=5	=5	=5	=5	=5	=5	=5	=5	=5	=5	=5	=5	=5	=5	=5	=5	=5	=5	=5	=5	=5	=5	=5	=5	=5	=5	=5	=5	=5	=5
*	*	*	*	*	*	*	*2\right	*	*	*	*	*	*	*	*	*	*	*	*	*	*	*	*	*	*	*	*	*	*	*	*	*
!	!	!	!	!	!	!	!LO:TX:a:t=P:all\right:problem	!	!	!	!	!	!	!	!	!	!LO:TX:a:t=P:all\right:problem	!	!	!	!	!	!LO:TX:a:t=P:all\right:problem	!	!LO:TX:a:t=P:all\right:problem	!	!LO:TX:a:t=P:all\right:problem	!	!	!	!	!
2d 2D\	2dd\	2D\	o-	.	2d\	2d/	2dd\	o-	.	1ryy	4.d 4.D\	.	4.D/	.	4.d\	.	4.dd\	2r	2ryy	.	2d 2D/	.	4.dd\	.	4.dd\	.	4.aa\	.	4.dd\	.	4.dd\	.
.	.	.	.	.	.	.	.	.	.	.	8d 8D\	.	8D/	.	8d\	.	8dd\	.	.	.	.	.	8dd\	.	8dd\	.	8aa\	.	8dd\	.	8dd\	.
4F 4FF/	4f/	4F\	-ku	.	4F/	4f/	4f/	-ku	.	.	4F 4FF/	.	4FF/	.	4F/	.	4f/	4f/	4f\	.	2r	.	4f/	.	4f/	.	4cc\	.	4f/	.	4ff\	.
4G 4GG/	4g/	4G\	wi-	.	4G/	4g/	4g/	wi-	.	.	4G 4GG/	.	4GG/	.	4G/	.	4g/	4g/	4g\	.	.	.	4g/	.	4g/	.	4dd\	.	4g/	.	4gg\	.
*	*	*	*	*	*	*	*	*	*	*	*	*	*	*	*	*	*	*v	*v	*	*	*	*	*	*	*	*	*	*	*	*	*
=6	=6	=6	=6	=6	=6	=6	=6	=6	=6	=6	=6	=6	=6	=6	=6	=6	=6	=6	=6	=6	=6	=6	=6	=6	=6	=6	=6	=6	=6	=6	=6
*	*	*	*	*	*	*	*	*	*	*	*	*	*	*	*2\right	*	*	*	*	*	*	*	*	*	*	*2\right	*	*	*	*	*
2.A 2.AA\	2.a/	2A\	-do-	.	2A\	2a/	2a/	-do-	.	1ryy	2.A/ 2.AA/	.	2.AA/	.	2.A\	.	2.a/	2.a\	.	2.A 2.AA/	.	2.a/	.	2.a/	.	2.ee\	.	2.a/	.	2.aa\	.
!	!	!	!	!	!	!	!	!	!LO:HP:a	!	!	!	!	!	!	!	!	!	!	!	!	!	!	!	!	!	!	!	!	!	!
.	.	4A\	-mych	.	4A\	4a/	4a\	-mych	<	.	.	.	.	.	.	.	.	.	.	.	.	.	.	.	.	.	.	.	.	.	.
!	!	!	!	!	!	!	!	!	!	!	!	!	!	!	!	!	!	!	!	!	!	!	!	!	!	!	!	!	!	!	!LO:HP:b
!	!	!	!	!	!	!	!	!	!	!	!	!	!	!LO:DY:b:rj	!	!	!	!	!	!	!LO:DY:b:rj	!	!LO:DY:b:rj	!	!LO:DY:b:rj	!	!	!	!	!	!LO:DY:b:rj
!	!	!	!	!	!	!	!	!	!	!	!	!	!	!LO:HP:a	!	!	!	!	!	!	!	!	!LO:HP:a	!	!	!	!	!	!	!	!
4A 4AA\	4a 4e 4c#X/	4A\	I	.	4c#X\	4e/	4a\	I	[[	.	4e#\	.	4A\	p <	4e 4c#X\	.	4r	4r	.	4e/ 4A/	p	4c#X/	p<	4a/	p	4ee\	.	4cc#X\	.	4ee\	p <
=7	=7	=7	=7	=7	=7	=7	=7	=7	=7	=7	=7	=7	=7	=7	=7	=7	=7	=7	=7	=7	=7	=7	=7	=7	=7	=7	=7	=7	=7	=7	=7
*	*	*	*	*	*	*	*	*	*	*	*	*	*	*	*	*	*	*^	*	*^	*	*	*	*	*	*	*	*	*	*	*
!	!	!	!	!	!	!	!	!	!LO:HP:a	!	!	!	!	!LO:HP:a	!	!	!	!	!	!	!	!	!	!	!LO:HP:a	!	!	!LO:N:acc=#	!	!	!	!	!LO:HP:b
1G#X 1GG#X	1bn 1f 1d	2G#X\	taj-	.	2d\	2f/	2bn/	taj-	>	1ryy	1d 1G#X	.	1G#X	[>]	1f 1Bn	.	1r	1f	1f	.	1d	1d	.	1d	[>	1bn	.	1ffn	.	1dd	.	1ffn	[>]
.	.	4G#\	-nych	.	4d\	4f/	4b/	-nych	.	.	.	.	.	.	.	.	.	.	.	.	.	.	.	.	.	.	.	.	.	.	.	.	.
.	.	4G#\	i-	.	4d\	4f/	4b/	i-	]	.	.	.	.	.	.	.	.	.	.	.	.	.	.	.	]	.	.	.	.	.	.	.	.
*	*	*	*	*	*	*	*	*	*	*	*	*	*	*	*	*	*	*v	*v	*	*	*	*	*	*	*	*	*	*	*	*	*	*
*	*	*	*	*	*	*	*	*	*	*	*	*	*	*	*	*	*	*	*	*v	*v	*	*	*	*	*	*	*	*	*	*	*
=8	=8	=8	=8	=8	=8	=8	=8	=8	=8	=8	=8	=8	=8	=8	=8	=8	=8	=8	=8	=8	=8	=8	=8	=8	=8	=8	=8	=8	=8	=8	=8
*	*	*	*	*	*	*	*	*	*	*	*	*	*	*	*	*	*	*	*	*	*	*	*	*	*	*	*	*2\right	*	*	*
2.A 2.AA;<\	2.a 2.e 2.c#X;>/	2A\	-stno-	.	2c#X\	2e/	2a/	-stno-	.	1ryy	2c#X 2A\	.	[>2A\	]	[>2e [>2c#X\	.	2r	[>2e\	.	[<2A/	.	2c#X/	.	[<2a/	.	[>2ee\	.	[>2cc#X\	.	[>2ee\	]
.	.	4A;\	-sci	.	4c#;>\	4e;>/	4a;>/	-ści	.	.	4c# 4A;>\	.	4A;>\]	.	4e] 4c#;>\]	.	4r;	4e;>\]	.	4A;>/]	.	4c#;>/	.	4a;>/]	.	4ee;>\]	.	4cc#;>\]	.	4ee;>\]	.
!	!	!	!	!	!	!	!	!	!	!	!	!	!	!LO:DY:b:rj	!	!	!	!	!	!	!	!	!	!	!LO:DY:b:rj	!	!	!	!	!	!
4A\	4a 4e 4c#/	4A\	I	.	4c#\	4e/	4a/	I	.	.	4c# 4A\	.	4A\	p	4r	.	4a/	4r	.	4r	.	4e/	.	4a/	p	4r	.	4r	.	4r	.
=9	=9	=9	=9	=9	=9	=9	=9	=9	=9	=9	=9	=9	=9	=9	=9	=9	=9	=9	=9	=9	=9	=9	=9	=9	=9	=9	=9	=9	=9	=9	=9
*	*^	*	*	*	*	*	*	*	*	*	*^	*	*	*	*	*	*^	*^	*	*	*	*	*	*	*	*	*	*	*	*	*
*	*	*^	*	*	*	*	*	*	*	*	*	*	*	*	*	*	*	*	*	*	*	*	*	*	*	*	*	*	*	*	*	*	*	*	*
*	*	*	*	*	*	*	*	*	*	*	*	*	*	*	*	*2\right	*	*	*	*	*2\right	*	*	*	*	*	*	*	*	*	*	*	*	*	*	*
!	!	!	!	!	!	!	!	!	!	!	!	!	!	!	!	!	!	!	!	!	!	!	!	!LO:DY:b:rj	!	!	!	!	!	!	!	!	!	!	!	!
4Gn\	2b-X/	2d/	1g	4Gn\	w Sy-	.	4d\	4g/	4b-X/	w Sy-	.	1ryy	2d/	4Gn\	.	4Gn\	.	1r	.	2b-X/	[>2g\	1g	1g	p	1r	.	1g	.	2b-X/	.	1r	.	1r	.	1r	.
4F\	.	.	.	4F\	-na	.	4d\	4g/	4b-/	-na	.	.	.	4Fn\	.	4Fn\	.	.	.	.	.	.	.	.	.	.	.	.	.	.	.	.	.	.	.	.
2E\	4ccn/	2c\	.	4E\	zro-	.	4cn\	4g/	4ccn/	zro-	.	.	2c/	2E\	.	2E\	.	.	.	4cc/	2g\]	.	.	.	.	.	.	.	(<4cc/	.	.	.	.	.	.	.
.	4b-/	.	.	4E\	-dzo-	.	4c\	4g/	4b-/	-dzo-	.	.	.	.	.	.	.	.	.	4b-/	.	.	.	.	.	.	.	.	4b-/)	.	.	.	.	.	.	.
*	*v	*v	*v	*	*	*	*	*	*	*	*	*	*	*	*	*	*	*	*	*	*	*	*	*	*	*	*	*	*	*	*	*	*	*	*	*
!!LO:PB:g=original
=10	=10	=10	=10	=10	=10	=10	=10	=10	=10	=10	=10	=10	=10	=10	=10	=10	=10	=10	=10	=10	=10	=10	=10	=10	=10	=10	=10	=10	=10	=10	=10	=10	=10	=10
!	!	!	!	!	!	!	!	!	!	!	!	!	!	!	!	!	!	!	!	!	!	!	!	!	!	!	!LO:TX:a:t=col. cl. ob.	!	!	!	!	!	!	!
4F\	2a 2f 2c/	(>4F\	-ne-	.	2c\	2f/	2a/	-ne-	.	1ryy	(>2c/	4F\	.	(>4F\	.	1r	.	2a/	2.f\	2.f/	2.f\	.	1r	.	2.f/	.	2a/yy	.	2a/	.	1r	.	1r	.
4E-X\	.	4E-X\)	.	.	.	.	.	.	.	.	.	4E-X\	.	4E-X\	.	.	.	.	.	.	.	.	.	.	.	.	.	.	.	.	.	.	.	.
4D\	4b- 4f 4B-/	4D\	-go	.	4B-\	4f/	4b-\	-go	.	.	4d/	4D\	.	4D\	.	.	.	4b/	.	.	.	.	.	.	.	.	(>4b-\yy	.	(>4b-\	.	.	.	.	.
4C\	4cc 4a 4f 4c/	4C\	przed	.	4A\	4f/	4cc\	przed	.	.	4A/)	4Cn\	.	4Cn\)	.	.	.	4cc/	4f\	4a/	4f\	.	.	.	4a 4f/	.	4cc\)yy	.	4cc\)	.	.	.	.	.
*	*	*	*	*	*	*	*	*	*	*	*v	*v	*	*	*	*	*	*	*	*	*	*	*	*	*	*	*	*	*	*	*	*	*	*
=11	=11	=11	=11	=11	=11	=11	=11	=11	=11	=11	=11	=11	=11	=11	=11	=11	=11	=11	=11	=11	=11	=11	=11	=11	=11	=11	=11	=11	=11	=11	=11	=11	=11
*	*	*	*	*	*	*	*	*	*	*	*	*	*	*	*	*	*	*	*	*	*	*^	*	*	*	*	*	*	*	*	*	*	*
2.BB-/	4dd 4b- 4f 4d/	2BB-/	wie-	.	4B-\	2f/	(>4dd\	wie-	.	1ryy	2.B- 2.BB-\	.	2.BB-/	.	4r	.	4dd/	4f\	2.cc/	2.f\	.	2r	1re	.	4b-\	.	4dd'\yy	.	4dd'\	.	1r	.	1r	.
!	!	!	!	!	!	!	!	!	!	!	!	!	!	!	!	!	!	!	!	!	!	!	!	!	!	!	!	!	!	!	!LO:HP:b	!	!	!
!	!	!	!	!	!	!	!	!	!	!	!	!	!	!	!	!	!LO:HP:b	!	!	!	!	!	!	!	!	!	!	!	!LO:HP:b	!	!	!	!	!
.	4ff 4dd 4b- 4f/	.	.	.	4d\	.	4ff\)	.	.	.	.	.	.	.	(>4f 4d\	>	4r	4ryy	.	.	.	.	.	.	(>4dd\	.	(>4ff\yy	>	(>4ff\	>	.	.	.	.
.	4dd 4b- 4f/	4BB-/	-ki	.	4B-\	4f/	4dd\	-ki	.	.	.	.	.	.	4d 4B-\	.	2r	2ryy	.	.	.	4ree	.	.	4b-\	.	4dd\yy	]	4dd\	.	.	.	.	.
4BB-/	4b- 4g 4d/	4BB-/	wszy-	.	4d\	4g/	4b-\	wszy-	.	.	4B- 4BB-\	.	4BB-/	.	4B- 4G\)	]]	.	.	4b-/	4g\	.	4d/	.	.	4g/)	.	4b-\)yy	.	4b-\)	]	.	.	.	.
*	*	*	*	*	*	*	*	*	*	*	*	*	*	*	*	*	*v	*v	*	*	*	*	*	*	*	*	*	*	*	*	*	*	*	*
=12	=12	=12	=12	=12	=12	=12	=12	=12	=12	=12	=12	=12	=12	=12	=12	=12	=12	=12	=12	=12	=12	=12	=12	=12	=12	=12	=12	=12	=12	=12	=12	=12	=12
*	*^	*	*	*	*	*	*	*	*	*	*	*	*	*	*	*	*	*	*	*	*	*	*	*	*	*	*	*	*	*	*	*	*
2C/	2a 2f/	2c/	2C/	-stkie-	.	2c\	2f/	2a/	-stkie-	.	1ryy	2c 2C\	.	2.C/	.	(<2B- 2F/	.	(<2a 2f/	(>2a/	(<2f\	.	2cX/	1re	.	(<2f/	.	(<2a/yy	.	(<2a/	.	1r	.	2r	.
2C 2CC/	4g/	2e 2c\	4C/	-mi	.	4c\	4e/	4g/	-mi	.	.	2C 2CC/	.	.	.	4G 4E/)	.	4g 4e/)	4g/)	4c/)	.	2r	.	.	4e/)	.	4g/)yy	.	4g/)	.	.	.	4r	.
!	!	!	!	!	!	!	!	!	!	!	!	!	!	!	!	!	!	!	!	!	!	!	!	!	!	!	!	!	!	!LO:HP:b	!	!	!	!
.	4g#X/	.	4C/	Je-	.	4c\	4e/	4g#X/	Je-	.	.	.	.	4r	.	4r	.	4r	4r	4ryy	.	.	.	.	4e/	.	4g#X/yy	<[	4g#X/	<[[	.	.	4gg#X 4ee\	.
*	*	*	*	*	*	*	*	*	*	*	*	*	*	*	*	*	*	*	*v	*v	*	*	*	*	*	*	*	*	*	*	*	*	*	*
*	*v	*v	*	*	*	*	*	*	*	*	*	*	*	*	*	*	*	*	*	*	*v	*v	*	*	*	*	*	*	*	*	*	*	*
=13	=13	=13	=13	=13	=13	=13	=13	=13	=13	=13	=13	=13	=13	=13	=13	=13	=13	=13	=13	=13	=13	=13	=13	=13	=13	=13	=13	=13	=13	=13	=13
!	!	!	!	!	!	!	!	!	!	!	!	!	!	!	!	!	!	!	!	!	!	!	!	!	!	!	!LO:DY:b	!	!	!	!
.	.	.	.	.	.	8qe/	(<8qg#X/	.	.	.	.	.	.	.	.	.	.	.	.	.	.	(<8qe/	.	(<8qg#X/yy	f	(<8qg#X/	f	.	.	(>8qgg#X (<8qee/	f
*	*	*	*	*	*	*	*	*	*	*	*	*	*	*	*^	*	*	*	*	*^	*	*	*	*	*	*	*	*	*	*	*
!	!	!	!	!	!	!	!	!	!	!	!	!LO:DY:b:rj	!	!LO:DY:b:rj	!	!	!	!	!	!LO:DY:a	!	!	!	!	!	!	!	!	!	!	!LO:DY:a:rj	!	!
2F 2FF\	2a 2f 2c/	4F\	-zu-	.	4c\	4f/	4a/)	-zu-	.	1ryy	2F 2FF/	f	4F\	f	4r	4ryy	f	1r	4r	f	2r	2r	.	2f/)	.	2a/)yy	.	2a/)	.	1r	f	4aa 4ff\))	.
.	.	4F\	-sa	.	4c\	4f/	4a/	-sa	.	.	.	.	4r	.	4A 4F/	4ryy	.	.	4a 4A/	.	.	.	.	.	.	.	.	.	.	.	.	4aa 4ff\	.
2E 2EE\	2A< 2g 2c#X/	4E\	Bo-	.	4A\	4c#X/	4gny/	Bo-	.	.	2E 2EE/	.	4E\	.	4r	4ryy	.	.	4r	.	2A/	2A\	.	2c#X/	.	2gn/yy	.	2gn/	.	.	.	4r	.
.	.	4E\	-ga	.	4A\	4c#/	4g/	-ga	.	.	.	.	4r	.	4c#X/	4G\	.	.	4g 4G/	.	.	.	.	.	.	.	.	.	.	.	.	4ggn 4cc#X\	.
*	*	*	*	*	*	*	*	*	*	*	*	*	*	*	*v	*v	*	*	*	*	*	*	*	*	*	*	*	*	*	*	*	*	*
=14	=14	=14	=14	=14	=14	=14	=14	=14	=14	=14	=14	=14	=14	=14	=14	=14	=14	=14	=14	=14	=14	=14	=14	=14	=14	=14	=14	=14	=14	=14	=14	=14
*	*	*	*	*	*	*	*	*	*	*	*	*	*	*	*	*	*^	*^	*	*	*	*	*	*	*	*	*	*	*	*	*^	*
!	!	!	!	!	!	!	!	!	!	!	!	!	!	!	!	!	!	!	!	!	!LO:DY:b:rj	!	!	!	!	!	!	!	!	!	!	!LO:DY:a:rj	!	!	!
2D 2DD\	2A< 2f 2d/	2D\	z Bo-	.	2A\	2d/	2f/	z Bo-	.	1ryy	2D 2DD/	.	4D\	.	4r	.	4r	4ryy	4r	4ryy	f	2d/	2d\	.	1d	.	2f/yy	f	2f/	f	1r	f	4r	4ryy	.
!	!	!	!	!	!	!	!	!	!	!	!	!	!	!	!	!	!	!	!	!	!	!	!	!	!	!	!	!	!	!	!	!	!	!	!LO:DY:b:rj
.	.	.	.	.	.	.	.	.	.	.	.	.	4r	.	4d 4F/	.	(>4f/	2.d\	4a/	4f\	.	.	.	.	.	.	.	.	.	.	.	.	4ff/	2dd\	f
4BB- 4BBB-/	4g 4d 4B-/	4BB-/	-ga	.	4B-\	4d/	4g/	-ga	.	.	4B- 4BB-\	.	4BB-/	.	4r	.	4g/	.	4g/	4g\	.	4d/	4d\	.	.	.	4g/yy	.	4g/	.	.	.	4gg/	.	.
4GG/	4e 4d 4B-/	4GG/	i	.	4B-\	4d/	4e/	i	.	.	4G 4GG\	.	4GG/	.	4e 4G\	.	4e/)	.	4e/	4e\	.	4e/	4d\	.	.	.	4e/yy	.	4e/	.	.	.	4ee/	4b-\	.
*	*	*	*	*	*	*	*	*	*	*	*	*	*	*	*	*	*	*	*v	*v	*	*	*	*	*	*	*	*	*	*	*	*	*	*	*
*	*	*	*	*	*	*	*	*	*	*	*	*	*	*	*	*	*	*	*	*	*v	*v	*	*	*	*	*	*	*	*	*	*	*	*
!!LO:PB:g=original
=15	=15	=15	=15	=15	=15	=15	=15	=15	=15	=15	=15	=15	=15	=15	=15	=15	=15	=15	=15	=15	=15	=15	=15	=15	=15	=15	=15	=15	=15	=15	=15	=15	=15
*^	*	*	*	*	*	*	*	*	*	*	*^	*	*	*	*	*	*	*	*	*	*	*	*	*	*	*	*	*	*	*	*	*	*
2A/	2AA\	2f 2d/	2AA/	świa-	.	2A/	2d/	2f/	świa-	.	1ryy	[>2A\	[>2AA\	.	4AA/	.	4r	.	2f/	[<2d/	4r	.	4r	.	2.d/	.	2f/	.	(<2f/	.	1r	.	2.dd/	4a\	.
.	.	.	.	.	.	.	.	.	.	.	.	.	.	.	4r	.	4d 4F\	.	.	.	4f 4A/	.	8AL 8AA/	.	.	.	.	.	.	.	.	.	.	4f\	.
.	.	.	.	.	.	.	.	.	.	.	.	.	.	.	.	.	.	.	.	.	.	.	8AJ 8AA/	.	.	.	.	.	.	.	.	.	.	.	.
4A/	2AA 2AAA/	4e 4d/	4AA/	-tło	.	4A/	4d/	4e/	-tło	.	.	4A\]	4AA\]	.	4AA/	.	4r	.	2e/	4d\]	4r	.	4A 4AA/	.	.	.	2e/	.	2e/)	.	.	.	.	2e\	.
4A 4G/	.	4e 4c#X/	4AA/	z-świa	.	4G/	4c#X/	4e/	z świa-	.	.	4AA/	4AA\	.	4r	.	4c#X 4G\	.	.	4c#X\	4e 4A/	.	4A 4AA/	.	4c#X/	.	.	.	.	.	.	.	4cc#X/	.	.
*	*	*	*	*	*	*	*	*	*	*	*	*v	*v	*	*	*	*	*	*v	*v	*	*	*	*	*	*	*	*	*	*	*	*	*	*	*
=16	=16	=16	=16	=16	=16	=16	=16	=16	=16	=16	=16	=16	=16	=16	=16	=16	=16	=16	=16	=16	=16	=16	=16	=16	=16	=16	=16	=16	=16	=16	=16	=16	=16
*	*	*^	*	*	*	*	*	*	*	*	*	*	*	*	*	*	*	*	*	*	*	*	*	*	*	*	*	*	*	*	*	*	*
!!LO:TX:t=1. 2.
*>A1	*>A1	*>A1	*>A1	*>A1	*	*	*>A1	*>A1	*>A1	*	*	*>A1	*>A1	*	*>A1	*	*>A1	*	*>A1	*>A1	*	*>A1	*	*>A1	*	*>A1	*	*>A1	*	*>A1	*	*>A1	*>A1	*
2.A 2.F	2.D/ 2.DD/	2.d/	2.d\	2D\	-tło-	.	2F/	2d/	2d/	-tło-	.	1ryy	2.D\	.	2D\	.	2.d 2.F\	.	2.d/	2f 2A/	.	2d 2D/	.	2d/	.	2d/	.	2d/	.	1r	.	(>2dd/	2f\	.
.	.	.	.	4D\	-sci	.	4F/	4d/	4d/	-sci.	.	.	.	.	4r	.	.	.	.	4f 4A/	.	4d 4D/	.	4d/	.	4d/	.	4d/	.	.	.	4d/)	4f\	.
4A 4E/	4AA\	4c#X/	4c#\	4r	.	.	4r	4r	4r	.	.	.	4A 4AA\	.	4AA/	.	4r	.	4r	4e 4A/	.	4e 4A/	.	4c#X/	.	4e/	.	4e/	.	.	.	4c#X/	4e\	.
=17||	=17||	=17||	=17||	=17||	=17||	=17||	=17||	=17||	=17||	=17||	=17||	=17||	=17||	=17||	=17||	=17||	=17||	=17||	=17||	=17||	=17||	=17||	=17||	=17||	=17||	=17||	=17||	=17||	=17||	=17||	=17||	=17||	=17||	=17||
!!LO:TX:t=3.
*>A2	*>A2	*>A2	*>A2	*>A2	*	*	*>A2	*>A2	*>A2	*	*	*>A2	*>A2	*	*>A2	*	*>A2	*	*>A2	*>A2	*	*>A2	*	*>A2	*	*>A2	*	*>A2	*	*>A2	*	*>A2	*>A2	*
2.A 2.F/	2.D 2.DD\	2.d/	2.d\	1ryy	.	.	1ryy	1ryy	1ryy	.	.	1ryy	2.D\	.	2.D\	.	2.d 2.F\	.	2.d/	2.f 2.A/	.	2.d 2.D/	.	2.d/	.	2.d/	.	2.d/	.	1r	.	2.dd\	2.f\	.
4r	4r	4r	4ryy	.	.	.	.	.	.	.	.	.	4r	.	4r	.	4r	.	4r	4r	.	4r	.	4r	.	4r	.	4r	.	.	.	4r	4ryy	.
*v	*v	*	*	*	*	*	*	*	*	*	*	*	*	*	*	*	*	*	*	*	*	*	*	*	*	*	*	*	*	*	*	*v	*v	*
*	*v	*v	*	*	*	*	*	*	*	*	*	*	*	*	*	*	*	*	*	*	*	*	*	*	*	*	*	*	*	*	*	*
=||	=||	=||	=||	=||	=||	=||	=||	=||	=||	=||	=||	=||	=||	=||	=||	=||	=||	=||	=||	=||	=||	=||	=||	=||	=||	=||	=||	=||	=||	=||	=||
*-	*-	*-	*-	*-	*-	*-	*-	*-	*-	*-	*-	*-	*-	*-	*-	*-	*-	*-	*-	*-	*-	*-	*-	*-	*-	*-	*-	*-	*-	*-	*-
!!!system-decoration: [(s1,s2)][(s3,s4,s5)]s6,s7,s8[(s9,s10)]s11,s12[(s13,s14,s15,s16)]{(s17,s18)}
!!!RDF**kern: > = above
!!!RDF**kern: < = below
!!!EED: Antoni Szymański
!!!EEV: 2021-04-24
!!!ENC: Andrzej Gręziak
!!!END: 2021-04-08
